static/image/Iterator.svg

<?xml version="1.0" encoding="utf-8"?>
<!DOCTYPE svg PUBLIC "-//W3C//DTD SVG 1.1//EN" "http://www.w3.org/Graphics/SVG/1.1/DTD/svg11.dtd">
<svg height="482" viewBox="-0.5 -0.5 642 482" width="642" xmlns="http://www.w3.org/2000/svg" xmlns:xlink="http://www.w3.org/1999/xlink">
 <defs>
  <style>
   @import url(https://fonts.googleapis.com/css?family=Fira+Code);
  </style>
  <style>
   svg {
           color: gray; 
           font-size: 14px; 
           font-family: "Fira Code";
       } 
       .none-stroke {
           fill: none; 
           stroke: gray;
       } 
       .fill-stroke {
           fill: #333; 
           stroke: gray;
       } 
       foreignObject {
           width: 100%; 
           height: 100%;
       } 
       .leftdiv {
           overflow: visible; 
           text-align: left;
       } 
       .centerdiv {
           box-sizing:border-box; 
           text-align:center
       } 
       .normaldiv {
           display:inline-block; 
           line-height:1.2; 
           white-space:normal; 
           overflow-wrap:normal
       } 
       .flexcenter {
           display:flex; 
           align-items:unsafe center; 
           justify-content:unsafe center;
       }
       .flexstart {
           display:flex; 
           align-items:unsafe center; 
           justify-content:unsafe flex-start;
       } 
       .flexzero {height: 1px;}
  </style>
 </defs>
 <path d="M60 100h160v60H60z" fill="none" pointer-events="all" stroke="gray"/>
 <foreignObject height="100%" pointer-events="none" requiredFeatures="http://www.w3.org/TR/SVG11/feature#Extensibility" style="overflow:visible;text-align:left" width="100%">
  <div style="display:flex;align-items:unsafe center;justify-content:unsafe center;width:158px;height:1px;padding-top:130px;margin-left:61px" xmlns="http://www.w3.org/1999/xhtml">
   <div data-drawio-colors="color: rgb(0, 0, 0);" style="box-sizing:border-box;font-size:0;text-align:center">
    <div style="display:inline-block;font-size:12px;font-family:Helvetica;color:#000;line-height:1.2;pointer-events:all;white-space:normal;overflow-wrap:normal">
     <font color="gray" face="Fira Code">
      <span style="font-size:15px">
       &lt;&lt;interface&gt;&gt;
       <br/>
       Iterator
       <br/>
      </span>
     </font>
    </div>
   </div>
  </div>
 </foreignObject>
 <path d="M60 160h160v30H60z" fill="none" pointer-events="all" stroke="gray"/>
 <foreignObject height="100%" pointer-events="none" requiredFeatures="http://www.w3.org/TR/SVG11/feature#Extensibility" style="overflow:visible;text-align:left" width="100%">
  <div style="display:flex;align-items:unsafe center;justify-content:unsafe flex-start;width:158px;height:1px;padding-top:175px;margin-left:62px" xmlns="http://www.w3.org/1999/xhtml">
   <div data-drawio-colors="color: rgb(0, 0, 0);" style="box-sizing:border-box;font-size:0;text-align:left">
    <div style="display:inline-block;font-size:12px;font-family:Helvetica;color:#000;line-height:1.2;pointer-events:all;white-space:normal;overflow-wrap:normal">
     <div>
      <font color="gray" face="Fira Code">
       <span style="font-size:15px">
        + getNext()
       </span>
      </font>
     </div>
    </div>
   </div>
  </div>
 </foreignObject>
 <path d="M60 190h160v30H60z" fill="none" pointer-events="all" stroke="gray"/>
 <foreignObject height="100%" pointer-events="none" requiredFeatures="http://www.w3.org/TR/SVG11/feature#Extensibility" style="overflow:visible;text-align:left" width="100%">
  <div style="display:flex;align-items:unsafe center;justify-content:unsafe flex-start;width:158px;height:1px;padding-top:205px;margin-left:62px" xmlns="http://www.w3.org/1999/xhtml">
   <div data-drawio-colors="color: rgb(0, 0, 0);" style="box-sizing:border-box;font-size:0;text-align:left">
    <div style="display:inline-block;font-size:12px;font-family:Helvetica;color:#000;line-height:1.2;pointer-events:all;white-space:normal;overflow-wrap:normal">
     <div>
      <font color="gray" face="Fira Code">
       <span style="font-size:15px">
        + hasNext(): bool
       </span>
      </font>
     </div>
    </div>
   </div>
  </div>
 </foreignObject>
 <path d="M360 100h260v60H360z" fill="none" pointer-events="all" stroke="gray"/>
 <foreignObject height="100%" pointer-events="none" requiredFeatures="http://www.w3.org/TR/SVG11/feature#Extensibility" style="overflow:visible;text-align:left" width="100%">
  <div style="display:flex;align-items:unsafe center;justify-content:unsafe center;width:258px;height:1px;padding-top:130px;margin-left:361px" xmlns="http://www.w3.org/1999/xhtml">
   <div data-drawio-colors="color: rgb(0, 0, 0);" style="box-sizing:border-box;font-size:0;text-align:center">
    <div style="display:inline-block;font-size:12px;font-family:Helvetica;color:#000;line-height:1.2;pointer-events:all;white-space:normal;overflow-wrap:normal">
     <font color="gray" face="Fira Code">
      <span style="font-size:15px">
       &lt;&lt;interface&gt;&gt;
       <br/>
       Iterable
       <br/>
      </span>
     </font>
    </div>
   </div>
  </div>
 </foreignObject>
 <path d="M360 175H224.47" fill="none" pointer-events="stroke" stroke="gray" stroke-dasharray="6 6" stroke-miterlimit="10" stroke-width="2"/>
 <path d="m234.24 169-12 6 12 6" fill="none" pointer-events="all" stroke="gray" stroke-miterlimit="10" stroke-width="2"/>
 <path d="M360 160h260v30H360z" fill="none" pointer-events="all" stroke="gray"/>
 <foreignObject height="100%" pointer-events="none" requiredFeatures="http://www.w3.org/TR/SVG11/feature#Extensibility" style="overflow:visible;text-align:left" width="100%">
  <div style="display:flex;align-items:unsafe center;justify-content:unsafe flex-start;width:258px;height:1px;padding-top:175px;margin-left:362px" xmlns="http://www.w3.org/1999/xhtml">
   <div data-drawio-colors="color: rgb(0, 0, 0);" style="box-sizing:border-box;font-size:0;text-align:left">
    <div style="display:inline-block;font-size:12px;font-family:Helvetica;color:#000;line-height:1.2;pointer-events:all;white-space:normal;overflow-wrap:normal">
     <div>
      <font color="gray" face="Fira Code">
       <span style="font-size:15px">
        + createIterator(): Iterator
       </span>
      </font>
     </div>
    </div>
   </div>
  </div>
 </foreignObject>
 <path d="M140 300v-65.76" fill="none" pointer-events="stroke" stroke="gray" stroke-dasharray="6 6" stroke-miterlimit="10" stroke-width="2"/>
 <path d="m140 222.24 6 12h-12Z" fill="none" pointer-events="all" stroke="gray" stroke-miterlimit="10" stroke-width="2"/>
 <path d="M0 300h280v30H0z" fill="none" pointer-events="all" stroke="gray"/>
 <foreignObject height="100%" pointer-events="none" requiredFeatures="http://www.w3.org/TR/SVG11/feature#Extensibility" style="overflow:visible;text-align:left" width="100%">
  <div style="display:flex;align-items:unsafe center;justify-content:unsafe center;width:278px;height:1px;padding-top:315px;margin-left:1px" xmlns="http://www.w3.org/1999/xhtml">
   <div data-drawio-colors="color: rgb(0, 0, 0);" style="box-sizing:border-box;font-size:0;text-align:center">
    <div style="display:inline-block;font-size:12px;font-family:Helvetica;color:#000;line-height:1.2;pointer-events:all;white-space:normal;overflow-wrap:normal">
     <font color="gray" face="Fira Code">
      <span style="font-size:15px">
       ConcreteIterator
       <br/>
      </span>
     </font>
    </div>
   </div>
  </div>
 </foreignObject>
 <path d="M284.47 345h71.06" fill="none" pointer-events="stroke" stroke="gray" stroke-miterlimit="10" stroke-width="2"/>
 <path d="m294.24 339-12 6 12 6M345.76 351l12-6-12-6" fill="none" pointer-events="all" stroke="gray" stroke-miterlimit="10" stroke-width="2"/>
 <path d="M0 330h280v30H0z" fill="none" pointer-events="all" stroke="gray"/>
 <foreignObject height="100%" pointer-events="none" requiredFeatures="http://www.w3.org/TR/SVG11/feature#Extensibility" style="overflow:visible;text-align:left" width="100%">
  <div style="display:flex;align-items:unsafe center;justify-content:unsafe flex-start;width:278px;height:1px;padding-top:345px;margin-left:2px" xmlns="http://www.w3.org/1999/xhtml">
   <div data-drawio-colors="color: rgb(0, 0, 0);" style="box-sizing:border-box;font-size:0;text-align:left">
    <div style="display:inline-block;font-size:12px;font-family:Helvetica;color:#000;line-height:1.2;pointer-events:all;white-space:normal;overflow-wrap:normal">
     <div>
      <font color="gray" face="Fira Code">
       <span style="font-size:15px">
        - iterable: ConcreteIterable
       </span>
      </font>
     </div>
    </div>
   </div>
  </div>
 </foreignObject>
 <path d="M0 390h280v30H0z" fill="none" pointer-events="all" stroke="gray"/>
 <foreignObject height="100%" pointer-events="none" requiredFeatures="http://www.w3.org/TR/SVG11/feature#Extensibility" style="overflow:visible;text-align:left" width="100%">
  <div style="display:flex;align-items:unsafe center;justify-content:unsafe flex-start;width:278px;height:1px;padding-top:405px;margin-left:2px" xmlns="http://www.w3.org/1999/xhtml">
   <div data-drawio-colors="color: rgb(0, 0, 0);" style="box-sizing:border-box;font-size:0;text-align:left">
    <div style="display:inline-block;font-size:12px;font-family:Helvetica;color:#000;line-height:1.2;pointer-events:all;white-space:normal;overflow-wrap:normal">
     <div>
      <font color="gray" face="Fira Code">
       <span style="font-size:15px">
        + ConcreteIterator(Iterable)
       </span>
      </font>
     </div>
    </div>
   </div>
  </div>
 </foreignObject>
 <path d="M0 420h280v30H0z" fill="none" pointer-events="all" stroke="gray"/>
 <foreignObject height="100%" pointer-events="none" requiredFeatures="http://www.w3.org/TR/SVG11/feature#Extensibility" style="overflow:visible;text-align:left" width="100%">
  <div style="display:flex;align-items:unsafe center;justify-content:unsafe flex-start;width:278px;height:1px;padding-top:435px;margin-left:2px" xmlns="http://www.w3.org/1999/xhtml">
   <div data-drawio-colors="color: rgb(0, 0, 0);" style="box-sizing:border-box;font-size:0;text-align:left">
    <div style="display:inline-block;font-size:12px;font-family:Helvetica;color:#000;line-height:1.2;pointer-events:all;white-space:normal;overflow-wrap:normal">
     <div>
      <font color="gray" face="Fira Code">
       <span style="font-size:15px">
        + getNext()
       </span>
      </font>
     </div>
    </div>
   </div>
  </div>
 </foreignObject>
 <path d="M0 360h280v30H0z" fill="none" pointer-events="all" stroke="gray"/>
 <foreignObject height="100%" pointer-events="none" requiredFeatures="http://www.w3.org/TR/SVG11/feature#Extensibility" style="overflow:visible;text-align:left" width="100%">
  <div style="display:flex;align-items:unsafe center;justify-content:unsafe flex-start;width:278px;height:1px;padding-top:375px;margin-left:2px" xmlns="http://www.w3.org/1999/xhtml">
   <div data-drawio-colors="color: rgb(0, 0, 0);" style="box-sizing:border-box;font-size:0;text-align:left">
    <div style="display:inline-block;font-size:12px;font-family:Helvetica;color:#000;line-height:1.2;pointer-events:all;white-space:normal;overflow-wrap:normal">
     <div>
      <font color="gray" face="Fira Code">
       <span style="font-size:15px">
        - iterateState
       </span>
      </font>
     </div>
    </div>
   </div>
  </div>
 </foreignObject>
 <path d="M0 450h280v30H0z" fill="none" pointer-events="all" stroke="gray"/>
 <foreignObject height="100%" pointer-events="none" requiredFeatures="http://www.w3.org/TR/SVG11/feature#Extensibility" style="overflow:visible;text-align:left" width="100%">
  <div style="display:flex;align-items:unsafe center;justify-content:unsafe flex-start;width:278px;height:1px;padding-top:465px;margin-left:2px" xmlns="http://www.w3.org/1999/xhtml">
   <div data-drawio-colors="color: rgb(0, 0, 0);" style="box-sizing:border-box;font-size:0;text-align:left">
    <div style="display:inline-block;font-size:12px;font-family:Helvetica;color:#000;line-height:1.2;pointer-events:all;white-space:normal;overflow-wrap:normal">
     <div>
      <font color="gray" face="Fira Code">
       <span style="font-size:15px">
        + hasNext(): bool
       </span>
      </font>
     </div>
    </div>
   </div>
  </div>
 </foreignObject>
 <path d="M500 300v-55l-.09-40.76" fill="none" pointer-events="stroke" stroke="gray" stroke-dasharray="6 6" stroke-miterlimit="10" stroke-width="2"/>
 <path d="m499.88 192.24 6.03 11.98-12 .03Z" fill="none" pointer-events="all" stroke="gray" stroke-miterlimit="10" stroke-width="2"/>
 <path d="M360 300h280v30H360z" fill="none" pointer-events="all" stroke="gray"/>
 <foreignObject height="100%" pointer-events="none" requiredFeatures="http://www.w3.org/TR/SVG11/feature#Extensibility" style="overflow:visible;text-align:left" width="100%">
  <div style="display:flex;align-items:unsafe center;justify-content:unsafe center;width:278px;height:1px;padding-top:315px;margin-left:361px" xmlns="http://www.w3.org/1999/xhtml">
   <div data-drawio-colors="color: rgb(0, 0, 0);" style="box-sizing:border-box;font-size:0;text-align:center">
    <div style="display:inline-block;font-size:12px;font-family:Helvetica;color:#000;line-height:1.2;pointer-events:all;white-space:normal;overflow-wrap:normal">
     <font color="gray" face="Fira Code">
      <span style="font-size:15px">
       ConcreteIterable
       <br/>
      </span>
     </font>
    </div>
   </div>
  </div>
 </foreignObject>
 <path d="M360 330h280v30H360z" fill="none" pointer-events="all" stroke="gray"/>
 <foreignObject height="100%" pointer-events="none" requiredFeatures="http://www.w3.org/TR/SVG11/feature#Extensibility" style="overflow:visible;text-align:left" width="100%">
  <div style="display:flex;align-items:unsafe center;justify-content:unsafe flex-start;width:278px;height:1px;padding-top:345px;margin-left:362px" xmlns="http://www.w3.org/1999/xhtml">
   <div data-drawio-colors="color: rgb(0, 0, 0);" style="box-sizing:border-box;font-size:0;text-align:left">
    <div style="display:inline-block;font-size:12px;font-family:Helvetica;color:#000;line-height:1.2;pointer-events:all;white-space:normal;overflow-wrap:normal">
     <div>
      <font color="gray" face="Fira Code">
       <span style="font-size:15px">
        ...
       </span>
      </font>
     </div>
    </div>
   </div>
  </div>
 </foreignObject>
 <path d="M360 360h280v30H360z" fill="none" pointer-events="all" stroke="gray"/>
 <foreignObject height="100%" pointer-events="none" requiredFeatures="http://www.w3.org/TR/SVG11/feature#Extensibility" style="overflow:visible;text-align:left" width="100%">
  <div style="display:flex;align-items:unsafe center;justify-content:unsafe flex-start;width:278px;height:1px;padding-top:375px;margin-left:362px" xmlns="http://www.w3.org/1999/xhtml">
   <div data-drawio-colors="color: rgb(0, 0, 0);" style="box-sizing:border-box;font-size:0;text-align:left">
    <div style="display:inline-block;font-size:12px;font-family:Helvetica;color:#000;line-height:1.2;pointer-events:all;white-space:normal;overflow-wrap:normal">
     <div>
      <font color="gray" face="Fira Code">
       <span style="font-size:15px">
        ...
       </span>
      </font>
     </div>
    </div>
   </div>
  </div>
 </foreignObject>
 <path d="M360 390h280v30H360z" fill="none" pointer-events="all" stroke="gray"/>
 <foreignObject height="100%" pointer-events="none" requiredFeatures="http://www.w3.org/TR/SVG11/feature#Extensibility" style="overflow:visible;text-align:left" width="100%">
  <div style="display:flex;align-items:unsafe center;justify-content:unsafe flex-start;width:278px;height:1px;padding-top:405px;margin-left:362px" xmlns="http://www.w3.org/1999/xhtml">
   <div data-drawio-colors="color: rgb(0, 0, 0);" style="box-sizing:border-box;font-size:0;text-align:left">
    <div style="display:inline-block;font-size:12px;font-family:Helvetica;color:#000;line-height:1.2;pointer-events:all;white-space:normal;overflow-wrap:normal">
     <div>
      <font color="gray" face="Fira Code">
       <span style="font-size:15px">
        + createIterator(): Iterator
       </span>
      </font>
     </div>
    </div>
   </div>
  </div>
 </foreignObject>
 <path d="M380 30h110v65.53" fill="none" pointer-events="stroke" stroke="gray" stroke-miterlimit="10" stroke-width="2"/>
 <path d="m484 85.76 6 12 6-12" fill="none" pointer-events="all" stroke="gray" stroke-miterlimit="10" stroke-width="2"/>
 <path d="M220 30h-80v65.53" fill="none" pointer-events="stroke" stroke="gray" stroke-miterlimit="10" stroke-width="2"/>
 <path d="m134 85.76 6 12 6-12" fill="none" pointer-events="all" stroke="gray" stroke-miterlimit="10" stroke-width="2"/>
 <path d="M220 0h160v60H220z" fill="none" pointer-events="all" stroke="gray"/>
 <foreignObject height="100%" pointer-events="none" requiredFeatures="http://www.w3.org/TR/SVG11/feature#Extensibility" style="overflow:visible;text-align:left" width="100%">
  <div style="display:flex;align-items:unsafe center;justify-content:unsafe center;width:158px;height:1px;padding-top:30px;margin-left:221px" xmlns="http://www.w3.org/1999/xhtml">
   <div data-drawio-colors="color: rgb(0, 0, 0);" style="box-sizing:border-box;font-size:0;text-align:center">
    <div style="display:inline-block;font-size:12px;font-family:Helvetica;color:#000;line-height:1.2;pointer-events:all;white-space:normal;overflow-wrap:normal">
     <font color="gray" face="Fira Code">
      <span style="font-size:15px">
       Client
       <br/>
      </span>
     </font>
    </div>
   </div>
  </div>
 </foreignObject>
</svg>

<svg height="482px" version="1.1" viewBox="-0.5 -0.5 642 482" width="642px" xmlns="http://www.w3.org/2000/svg" xmlns:xlink="http://www.w3.org/1999/xlink"><defs/><rect height="60" class="none-stroke" width="160" x="60" y="100"/><foreignObject class="leftdiv" ><div class="flexcenter flexzero" style="width:158px;padding-top:130px;margin-left:61px" xmlns="http://www.w3.org/1999/xhtml"><div class="centerdiv"><div class="normaldiv">&lt;&lt;interface&gt;&gt;<br/>Iterator<br/></div></div></div></foreignObject><rect height="30" class="none-stroke" width="160" x="60" y="160"/><foreignObject class="leftdiv" ><div class="flexstart flexzero" style="width:158px;padding-top:175px;margin-left:62px" xmlns="http://www.w3.org/1999/xhtml"><div class="leftdiv"><div class="normaldiv"><div style="">+ getNext()</div></div></div></div></foreignObject><rect height="30" class="none-stroke" width="160" x="60" y="190"/><foreignObject class="leftdiv" ><div class="flexstart flexzero" style="width:158px;padding-top:205px;margin-left:62px" xmlns="http://www.w3.org/1999/xhtml"><div class="leftdiv"><div class="normaldiv"><div style="">+ hasNext():bool</div></div></div></div></foreignObject><rect height="60" class="none-stroke" width="260" x="360" y="100"/><foreignObject class="leftdiv" ><div class="flexcenter flexzero" style="width:258px;padding-top:130px;margin-left:361px" xmlns="http://www.w3.org/1999/xhtml"><div class="centerdiv"><div class="normaldiv">&lt;&lt;interface&gt;&gt;<br/>Iterable<br/></div></div></div></foreignObject><path d="M 360 175 L 224.47 175" class="none-stroke" stroke-dasharray="6 6" stroke-miterlimit="10" stroke-width="2"/><path d="M 234.24 169 L 222.24 175 L 234.24 181" class="none-stroke" stroke-miterlimit="10" stroke-width="2"/><rect height="30" class="none-stroke" width="260" x="360" y="160"/><foreignObject class="leftdiv" ><div class="flexstart flexzero" style="width:258px;padding-top:175px;margin-left:362px" xmlns="http://www.w3.org/1999/xhtml"><div class="leftdiv"><div class="normaldiv"><div style="">+ createIterator():Iterator</div></div></div></div></foreignObject><path d="M 140 300 L 140 234.24" class="none-stroke" stroke-dasharray="6 6" stroke-miterlimit="10" stroke-width="2"/><path d="M 140 222.24 L 146 234.24 L 134 234.24 Z" class="none-stroke" stroke-miterlimit="10" stroke-width="2"/><rect height="30" class="none-stroke" width="280" x="0" y="300"/><foreignObject class="leftdiv" ><div class="flexcenter flexzero" style="width:278px;padding-top:315px;margin-left:1px" xmlns="http://www.w3.org/1999/xhtml"><div class="centerdiv"><div class="normaldiv">ConcreteIterator<br/></div></div></div></foreignObject><path d="M 284.47 345 L 355.53 345" class="none-stroke" stroke-miterlimit="10" stroke-width="2"/><path d="M 294.24 339 L 282.24 345 L 294.24 351" class="none-stroke" stroke-miterlimit="10" stroke-width="2"/><path d="M 345.76 351 L 357.76 345 L 345.76 339" class="none-stroke" stroke-miterlimit="10" stroke-width="2"/><rect height="30" class="none-stroke" width="280" x="0" y="330"/><foreignObject class="leftdiv" ><div class="flexstart flexzero" style="width:278px;padding-top:345px;margin-left:2px" xmlns="http://www.w3.org/1999/xhtml"><div class="leftdiv"><div class="normaldiv"><div style="">- iterable:ConcreteIterable</div></div></div></div></foreignObject><rect height="30" class="none-stroke" width="280" x="0" y="390"/><foreignObject class="leftdiv" ><div class="flexstart flexzero" style="width:278px;padding-top:405px;margin-left:2px" xmlns="http://www.w3.org/1999/xhtml"><div class="leftdiv"><div class="normaldiv"><div style="">+ ConcreteIterator(Iterable)</div></div></div></div></foreignObject><rect height="30" class="none-stroke" width="280" x="0" y="420"/><foreignObject class="leftdiv" ><div class="flexstart flexzero" style="width:278px;padding-top:435px;margin-left:2px" xmlns="http://www.w3.org/1999/xhtml"><div class="leftdiv"><div class="normaldiv"><div style="">+ getNext()</div></div></div></div></foreignObject><rect height="30" class="none-stroke" width="280" x="0" y="360"/><foreignObject class="leftdiv" ><div class="flexstart flexzero" style="width:278px;padding-top:375px;margin-left:2px" xmlns="http://www.w3.org/1999/xhtml"><div class="leftdiv"><div class="normaldiv"><div style="">- iterateState</div></div></div></div></foreignObject><rect height="30" class="none-stroke" width="280" x="0" y="450"/><foreignObject class="leftdiv" ><div class="flexstart flexzero" style="width:278px;padding-top:465px;margin-left:2px" xmlns="http://www.w3.org/1999/xhtml"><div class="leftdiv"><div class="normaldiv"><div style="">+ hasNext():bool</div></div></div></div></foreignObject><path d="M 500 300 L 500 245 L 499.91 204.24" class="none-stroke" stroke-dasharray="6 6" stroke-miterlimit="10" stroke-width="2"/><path d="M 499.88 192.24 L 505.91 204.22 L 493.91 204.25 Z" class="none-stroke" stroke-miterlimit="10" stroke-width="2"/><rect height="30" class="none-stroke" width="280" x="360" y="300"/><foreignObject class="leftdiv" ><div class="flexcenter flexzero" style="width:278px;padding-top:315px;margin-left:361px" xmlns="http://www.w3.org/1999/xhtml"><div class="centerdiv"><div class="normaldiv">ConcreteIterable<br/></div></div></div></foreignObject><rect height="30" class="none-stroke" width="280" x="360" y="330"/><foreignObject class="leftdiv" ><div class="flexstart flexzero" style="width:278px;padding-top:345px;margin-left:362px" xmlns="http://www.w3.org/1999/xhtml"><div class="leftdiv"><div class="normaldiv"><div style="">...</div></div></div></div></foreignObject><rect height="30" class="none-stroke" width="280" x="360" y="360"/><foreignObject class="leftdiv" ><div class="flexstart flexzero" style="width:278px;padding-top:375px;margin-left:362px" xmlns="http://www.w3.org/1999/xhtml"><div class="leftdiv"><div class="normaldiv"><div style="">...</div></div></div></div></foreignObject><rect height="30" class="none-stroke" width="280" x="360" y="390"/><foreignObject class="leftdiv" ><div class="flexstart flexzero" style="width:278px;padding-top:405px;margin-left:362px" xmlns="http://www.w3.org/1999/xhtml"><div class="leftdiv"><div class="normaldiv"><div style="">+ createIterator():Iterator</div></div></div></div></foreignObject><path d="M 380 30 L 490 30 L 490 95.53" class="none-stroke" stroke-miterlimit="10" stroke-width="2"/><path d="M 484 85.76 L 490 97.76 L 496 85.76" class="none-stroke" stroke-miterlimit="10" stroke-width="2"/><path d="M 220 30 L 140 30 L 140 95.53" class="none-stroke" stroke-miterlimit="10" stroke-width="2"/><path d="M 134 85.76 L 140 97.76 L 146 85.76" class="none-stroke" stroke-miterlimit="10" stroke-width="2"/><rect height="60" class="none-stroke" width="160" x="220" y="0"/><foreignObject class="leftdiv" ><div class="flexcenter flexzero" style="width:158px;padding-top:30px;margin-left:221px" xmlns="http://www.w3.org/1999/xhtml"><div class="centerdiv"><div class="normaldiv">Client<br/></div></div></div></foreignObject></svg>
